X: 10510
T: Dooley's Fancy
R: reel
M: 4/4
K: Amajor
cAEA ceae|dcBA GABd|cAce agaf|eagb afed|
cAEA ceae|dcBA GABd|cAce a2af|edcB A2fg||
a2ge fecA|dcBA GAfg|a2ge fece|fagb aefg|
agag fedc|dcBA GABd|cAeA fagb|afed ceae||

